www/assets/icons/sip.svg

<svg xmlns="http://www.w3.org/2000/svg" width="24" height="24" viewBox="0 0 24 24" fill='currentColor'><path d="M17.5 10.5h-2v1h2z"/><path d="M20 4H4c-1.1 0-2 .9-2 2v12c0 1.1.9 2 2 2h16c1.1 0 2-.9 2-2V6c0-1.1-.9-2-2-2m-10 6.5H6.5v.75H9c.55 0 1 .45 1 1V14c0 .55-.45 1-1 1H5v-1.5h3.5v-.75H6c-.55 0-1-.45-1-1V10c0-.55.45-1 1-1h4zm3 4.5h-2V9h2zm6-3c0 .55-.45 1-1 1h-2.5v2H14V9h4c.55 0 1 .45 1 1z"/></svg>

<svg width="24" height="24" viewBox="0 0 24 24" xmlns="http://www.w3.org/2000/svg" fill='currentColor'><path d="M17.5 10.5H15.5V11.5H17.5V10.5Z"/><path d="M20 4H4C2.9 4 2 4.9 2 6V18C2 19.1 2.9 20 4 20H20C21.1 20 22 19.1 22 18V6C22 4.9 21.1 4 20 4ZM10 10.5H6.5V11.25H9C9.55 11.25 10 11.7 10 12.25V14C10 14.55 9.55 15 9 15H5V13.5H8.5V12.75H6C5.45 12.75 5 12.3 5 11.75V10C5 9.45 5.45 9 6 9H10V10.5ZM13 15H11V9H13V15ZM19 12C19 12.55 18.55 13 18 13H15.5V15H14V9H18C18.55 9 19 9.45 19 10V12Z"/></svg>
